src/ui/checkup.svg

<?xml version="1.0" encoding="UTF-8"?><svg xmlns="http://www.w3.org/2000/svg" width="32" height="32" viewBox="0 0 32 32"><defs><style>.uuid-3c2946d2-c8ce-46e1-b17f-01d42067d24a{fill:none;}.uuid-7f4e394e-1e61-4ffa-a7b5-a82650afbb78{fill:#151515;}</style></defs><g id="uuid-b3a083dd-0128-42ba-8751-1fbd2432d169"><rect class="uuid-3c2946d2-c8ce-46e1-b17f-01d42067d24a" width="32" height="32"/></g><g id="uuid-52bb0042-c6f5-4f2f-9bbd-cba3769838e9"><path class="uuid-7f4e394e-1e61-4ffa-a7b5-a82650afbb78" d="M26,13c-2.75684,0-5,2.24316-5,5,0,2.39191,1.69067,4.39209,3.93835,4.88104-.43549,3.44458-3.3775,6.11896-6.93835,6.11896-3.85986,0-7-3.14014-7-7v-1.06946c3.93994-.49463,7-3.85876,7-7.93054V3.5c0-.82715-.67285-1.5-1.5-1.5h-2.5c-.55225,0-1,.44775-1,1s.44775,1,1,1h2v9c0,3.30859-2.69141,6-6,6s-6-2.69141-6-6V4h2c.55225,0,1-.44775,1-1s-.44775-1-1-1h-2.5c-.82715,0-1.5.67285-1.5,1.5v9.5c0,4.07178,3.06006,7.43591,7,7.93054v1.06946c0,4.9624,4.0376,9,9,9,4.65741,0,8.49945-3.55682,8.95422-8.0965,2.30139-.44733,4.04578-2.47339,4.04578-4.9035,0-2.75684-2.24316-5-5-5ZM26,21c-1.6543,0-3-1.3457-3-3s1.3457-3,3-3,3,1.3457,3,3-1.3457,3-3,3Z"/></g></svg>

<svg xmlns="http://www.w3.org/2000/svg" viewBox="0 0 32 32">
  <path d="M26 13c-2.757 0-5 2.243-5 5 0 2.392 1.691 4.392 3.938 4.881C24.503 26.326 21.56 29 18 29c-3.86 0-7-3.14-7-7v-1.069c3.94-.495 7-3.859 7-7.931V3.5c0-.827-.673-1.5-1.5-1.5H14a1 1 0 0 0 0 2h2v9c0 3.309-2.691 6-6 6s-6-2.691-6-6V4h2a1 1 0 0 0 0-2H3.5C2.673 2 2 2.673 2 3.5V13c0 4.072 3.06 7.436 7 7.931V22c0 4.962 4.038 9 9 9 4.657 0 8.499-3.557 8.954-8.096A5.005 5.005 0 0 0 31 18c0-2.757-2.243-5-5-5Zm0 8c-1.654 0-3-1.346-3-3s1.346-3 3-3 3 1.346 3 3-1.346 3-3 3Z"/>
</svg>
